X:426
T:A Bright Morning
N:"Moderate" "collected by J.O'Neill"
N:Irish title: madain geal
B:O'Neill's 426
Z:Transcribed by henrik.norbeck@mailbox.swipnet.se
M:2/4
L:1/8
K:G
B/A/|GA BA/B/|d/e/f/d/ ed/B/|dc/B/A/B/ G/B/A/G/|F2 ED/E/|
GA BA/B/|d/e/f/d/ ed/B/|dc/B/A/B/ GG|G3||
3d/e/f/|ge fd|ed BA|B/A/B/d/ e/g/f/d/|e3 3d/e/f/|
ge fd|ed BA|B/A/B/d/ f/a/g/f/|e3 B/A/|
GA BA/B/|d/e/f/d/ ed/B/|dc/B/A/B/ GG|G3||
